X:9
T:9. There is a Jewel
C:John Wilby
%#Noindex
%%score [1 2 3]
%%transpose 7
L:1/4
M:4/4
I:linebreak $
K:F
V:1 treble nm="Treble I"
%%MIDI program 73
V:2 treble nm="Treble II"
%%MIDI program 73
V:3 bass nm="Bass" octave=-1
%%MIDI program 73
V:1
 A2 A A | d A2 z | F2 F F | F/E/F/G/ A/B/A/B/ | c c c A |$ G A G F | E4- | E2 c2 | F G/A/ B2- | %9
w: There is a|jew- el,|there is a|jew- -------|- el which no|In- dian mines can|buy,|_ no|chy- mic_ art|
 B2 A2 | G2 G2 |$ A c c B | A G B A | G F G2 | A2 z2 |$ z4 | z F F3/2 _E/ | D A c c | B A c B |$ %19
w: _ can|coun- ter-|feit: It makes men|rich in great- est|po- - ver-|ty,||it makes men|rich, it makes men|rich in great- est|
 A B3/2 A/4G/4 A | B z2 z | z f f _e | d f _e d |$ c B A2 | =B2 d2 | c G A3/2 A/ | G4- |$ G c c B | %28
w: po- ver- ---|ty,|it makes men|rich in great- est|po- - ver-|ty, in|great- est po- ver-|ty;|* Makes wa- ter|
 A G B A | G F G2 | z A A G |$ F B B A | G B A G | ^F G2 F | G2 z2 |$ z ^F F A | G/A/B/c/ B G | %37
w: wine; turns wood- en|cups to gold;|makes wa- ter|wine, makes wa- ter|wine; turns wood- en|cups to_|gold;|The home- ly|whi- ---- stle,|
 z A A c | B/c/d/_e/ d B |$ c d c c | B d B d | c/B/A/B/ c A | z B G B |$ A/G/F/G/ A d/d/ | %44
w: the home ly|whi ---- stle|to sweet mu- sic's|strain, the home- ly|whi- ---- stle,|the home- ly|whi- ---- stle, the|
 c3/2 d/ B3/2 c/ | A G A A | G D G F |$ E/D/E/F/ E A | G3/2 A/ F3/2 G/ | E D E E | ^F4 | %51
w: home- ly whi- stle|to sweet mu- sic's|strain, the home- ly|whi- --- stle, the|home- ly whi- stle|to sweet mu- sic's|strain.|
 z A3/2 A/ A |$ B2 A G- | G F G G | A A3/2 G/ F | E D ^C A |$ A2 G2 | A4 | A A/G/ F2 | G G/F/ E2 |$ %60
w: Sel- dom it|comes; to few|_ from Hea- ven|sent, sel- dom it|comes; to few from|Hea- ven|sent,|sel- dom it comes,|sel- dom it comes,|
 F F/E/ D D | ^C D D C | D2 z2 | z d c A |$ B G A3/2 A/ | G2 z2 | z c B G | A F G3/2 G/ |$ F2 z2 | %69
w: sel- dom it comes; to|few from Hea- ven|sent,|That much in|lit- tle, all in|nought,|that much in|lit- tle, all in|nought,|
 z A G E | F D E3/2 E/ | D2 z2 |$ z D E ^F | G3 ^F | E2 D2 | E2 E2 | ^F4- |$ F4 |] %78
w: that much in|lit- tle, all in|nought,|that much in|lit- tle,|all in|nought con-|tent.|_|
V:2
 F2 F F | F F2 z | A2 A A | A/G/F/E/ F/G/A/F/ | G G G F |$ E3/2 F/ G A/B/ | c4- | c2 G A | %8
w: There is a|jew- el,|there is a|jew- -------|- el which no|In- dian mines Can_|buy,|_ no_|
 B A G F | G2 F2- | F2 E2 |$ F C C D/E/ | F E D2 | E F2 E | F F F _E |$ D C _E D | C B, C2 | %17
w: chy- mic art can|coun- ter-||feit: It makes men_|rich in great-|est po- ver-|ty, it makes men|rich in great- est|po- - ver-|
 D2 z2 | z4 |$ z f f _e | d c _e d | c B c c | B A G B |$ A G G ^F | G G G F | E D F E | D C D2 |$ %27
w: ty,||it makes men|rich in great- est|po- ver- ty, it|makes men rich in|great- est po- ver-|ty; Makes wa- ter|wine; turns wood- en|cups to gold;|
 E2 E D | C C D F | E F2 E | F F F E |$ D d d c | B B c2- | c B A A | =B G G G |$ ^F/G/A/B/ A F | %36
w: makes wa- ter|wine; turns wood- en|cups_ to|gold; makes wa- ter|wine, makes wa- ter|wine; turns wood-|- en cups to|gold; The home- ly|whi- ---- stle,|
 z G G B | A/B/c/d/ c A | z B B d |$ c B B A | B2 z2 | z c A c | B/A/G/A/ B G |$ z A F B | %44
w: the home- ly|whi- ---- stle,|the whi- stle|to sweet mu- sic's|strain,|the home- ly|whi- ---- stle,|the home- ly|
 A3/2 B/ G3/2 A/ | ^F G2 F | G3/2 F/ E D |$ ^C/=B,/C/D/ C F | E3/2 F/ D3/2 E/ | ^C D D C | D4 | %51
w: whi- stle to sweet|mu- - sic's|strain, the home- ly|whi- --- stle, the|home- ly whi- stle|to sweet mu- sic's|strain.|
 z F3/2 F/ F |$ G2 F E- | E F F E | F2 z A- | A/G/ F E E |$ D3 E | F F E2 | F F/G/ A2 | %59
w: Sel- dom it|comes; to few|_ from Hea- ven|sent, sel-|- dom it comes; to|few from|Hea- ven sent,|sel- dom it comes,|
 E E/F/ G2 |$ D D/E/ F G | A F E E | ^F =F G A | D G G ^F |$ G2 z2 | z E F G | C F F E | F2 z2 |$ %68
w: sel- dom it comes,|sel- dom it comes; to|few from Hea- ven|sent, That much in|lit- tle, all in|nought,|that much in|lit- tle, all in|nought,|
 z C D E | A, D D ^C | D2 z2 | z D C C |$ =B,3 A, | =B, ^C D2 | ^C2 D2- | D2 ^C2 | D4- |$ D4 |] %78
w: that much in|lit- tle, all in|nought,|that much in|lit- tle,|all__|in nought|_ con-|tent.|_|
V:3
 D2 D D | D2 D,2 | D2 D D | D4 | C2 C F, |$ C3/2 D/ E F | C4 | C,4 | D,2 D,2 | E,2 F,2 | C,2 C,2 |$ %11
w: There is a|jew- el,|there is a|jew-|el which no|In- dian mines can|buy,|no|chy- mic|art can|coun- ter-|
 F,2 z2 | z4 | z4 | z F, F, G,/A,/ |$ B, A, G,2 | A, B,2 A, | B, F F _E | D F _E D |$ C B, C C | %20
w: feit:|||it makes men_|rich in great-|est po- ver-|ty, it makes men|rich in great- est|po- ver- ty, in|
 B, A, G, B, | F,2 F,2 | G, D, _E, B, |$ C C D D | G, G, G, A,/=B,/ | C =B, A,2 | =B, C2 B, |$ %27
w: great- est po- ver-|ty, it|makes men rich in|great- est po- ver-|ty; Makes wa- ter_|wine; turns wood-|en cups to|
 C C, C, D,/E,/ | F, E, G, F, | C3 C | F, F, F, G,/A,/ |$ B, B, B, C/D/ | _E D C E | D3 D | %34
w: gold; makes wa- ter_|wine; turns wood- en|cups to|gold; makes wa- ter_|wine, makes wa- ter _|wine; turns wood- en|cups to|
 G,4 |$ D,4 | G,4 | F,4 | B,3 B, |$ A, B, F F | B,2 B,2 | F,4 | G,4 |$ D3 D | D2 D2 | %45
w: gold;|The|home-|ly|whi- stle|to sweet mu- sic's|strain, the|home-|ly|whi- stle|to sweet|
 D2 D2 | G,4 |$ A,4 | A,4 | A,4 | D,4 | z D3/2 D/ D |$ G,2 A, C- | C F, C C | F, F3/2 E/ D | %55
w: mu- sic's|strain,|sweet|mu-|sic's|strain.|Sel- dom it|comes; to few|_ from Hea- ven|sent, sel- dom it|
 ^C D A, =C |$ B,2 B,2 | A,4 | D4 | C4 |$ B,4 | A,4 | z D C A, | B, G, A,3/2 A,/ |$ G, G,2 _G, | %65
w: comes; to few from|Hea- ven|sent,|from|Hea-|ven|sent.|That much in|lit- tle, all in|nought, all in|
 G, C B, G, | A, F, G,3/2 G,/ | F, F,2 E, |$ F, A, G, E, | F, D, E,3/2 E,/ | D, D,2 ^C, | %71
w: nought, that much in|lit- tle, all in|nought, all in|nought, that much in|lit- tle, all in|nought, all in|
 D, D, E, _G, |$ G,3 _G, | E,2 D,2 | A,4 | A,4 | D,4- |$ D,4 |] %78
w: nought, that much in|lit- tle,|all in|nought|con-|tent.|_|

